htaccess/icons/php.svg

<svg height="100" viewBox="0 0 100 100" width="100" xmlns="http://www.w3.org/2000/svg"><path d="m67.75 0h-49.917c-2.761 0-5 2.239-5 5v90c0 2.761 2.239 5 5 5h65.333c2.761 0 5-2.239 5-5v-74.583z" fill="#2980b9"/><g fill="#fff"><path d="m67.75 15.417c0 2.761 2.239 5 5 5h15.417l-20.417-20.417z" opacity=".4"/><path d="m34.873 44.474h-11.131l-4.81 24.368h5.715l1.206-6.315h5.413c5.112.301 10.827-3.912 10.827-11.129-.001-4.213-2.404-6.623-7.22-6.924zm-4.21 13.543h-3.61l1.505-9.026h3.909c2.105 0 3.613.904 3.613 2.706-.306 5.114-2.709 6.016-5.417 6.32zm24.362-13.543h-5.413l1.203-6.315h-5.715l-4.81 24.365h5.715l2.705-13.535h4.514c2.105 0 2.105.904 1.804 2.409l-2.105 11.128h6.016l2.103-12.334c.6-3.005-1.206-5.412-6.017-5.718zm20.154 0h-11.128l-4.81 24.365h5.712l1.203-6.315h5.416c5.114.301 10.829-3.912 10.829-11.126.002-4.213-2.408-6.623-7.222-6.924zm-4.212 13.543h-3.607l1.502-9.026h3.911c2.108 0 3.613.904 3.613 2.706-.301 5.114-2.711 6.016-5.419 6.32z"/></g></svg>

<svg version="1.1" xmlns="http://www.w3.org/2000/svg" xmlns:xlink="http://www.w3.org/1999/xlink" width="100px" height="100px" viewBox="0 0 100 100" xml:space="preserve">
<path fill="#2980B9" d="M67.75,0H17.833c-2.761,0-5,2.239-5,5v90c0,2.761,2.239,5,5,5h65.333c2.761,0,5-2.239,5-5V20.417L67.75,0z"
	/>
<path opacity="0.4" fill="#FFFFFF" d="M67.75,15.417c0,2.761,2.239,5,5,5h15.417L67.75,0V15.417z"/>
<path fill="#FFFFFF" d="M34.873,44.474H23.742l-4.81,24.368h5.715l1.206-6.315h5.413c5.112,0.301,10.827-3.912,10.827-11.129
	C42.092,47.185,39.689,44.775,34.873,44.474L34.873,44.474z M30.663,58.017h-3.61l1.505-9.026h3.909
	c2.105,0,3.613,0.904,3.613,2.706C35.774,56.811,33.371,57.713,30.663,58.017z M55.025,44.474h-5.413l1.203-6.315H45.1l-4.81,24.365
	h5.715l2.705-13.535h4.514c2.105,0,2.105,0.904,1.804,2.409l-2.105,11.128h6.016l2.103-12.334
	C61.642,47.187,59.836,44.78,55.025,44.474L55.025,44.474z M75.179,44.474H64.051l-4.81,24.365h5.712l1.203-6.315h5.416
	c5.114,0.301,10.829-3.912,10.829-11.126C82.403,47.185,79.993,44.775,75.179,44.474L75.179,44.474z M70.967,58.017H67.36
	l1.502-9.026h3.911c2.108,0,3.613,0.904,3.613,2.706C76.085,56.811,73.675,57.713,70.967,58.017z"/>
</svg>
